X: 28616
T: Music For A Found Harmonium
R: reel
M: 4/4
K: Emajor
EF|:GEAE GEEE|GEAE GEEE|GEAE GEEE|FEDE GEEE:|
|:FEDE FEDE|GEDE GEDE|AEFE DEAE|1 GEEE E2 EE:|2 GEEE E2 E=G||
K:Dmaj
|:dGFG {FG}AGFG|1 dGFG FF2 G:|2 dGFG FF2 E||
K:Gmaj
cGEG AGEG|cGEG AGEG|cGFG AFFA|cGFG AFFA|
^dAFA dAAA|^dAFA dAAA|^dAFA dAAA|^dAFA dAAA|
K:Emaj
|:GEAE GEEE|GEAE GEEE|GEAE GEEE|FEDE GEEE:|
|:FEDE FEDE|GE=DE GEDE|AEFE DEFE|1 GEEE E2 EE:|2 GEEE E4||
aece fece|aece fece|aede fddf|aede fddf||

